content/en/docs/concepts/traffic-management/virtual-services-2.svg

<svg xmlns="http://www.w3.org/2000/svg" viewBox="0 0 451.41 248"><defs><style>.aae3d121-d80c-47ce-a777-935129c10f63,.ae3a4771-7b41-4ecb-9278-5683c0a26b12,.e6beec96-64c8-4ac5-b8be-803c7d257c13,.f9d5d7f8-ab6c-4092-aff5-17a00d10b4e9,.fcbd7968-3980-44ee-95a4-9537feb04074{fill:none}.aae3d121-d80c-47ce-a777-935129c10f63,.ae3a4771-7b41-4ecb-9278-5683c0a26b12,.e6beec96-64c8-4ac5-b8be-803c7d257c13,.f9d5d7f8-ab6c-4092-aff5-17a00d10b4e9{stroke-linejoin:round}.be67354c-e839-40bb-b6c9-1b6ee41f2743{font-size:16px}.a7c32a2c-5acd-49bd-878d-3a851a39ae54,.be67354c-e839-40bb-b6c9-1b6ee41f2743{font-family:GoogleSans-Regular,Google Sans}.b2522a8c-a3aa-44b6-8883-2de0a703a95c{letter-spacing:0}.ad719442-ce20-45ee-8263-a3533359a9ca{letter-spacing:-.01em}.a1493af5-e6b3-4434-abde-272dce7d150d{letter-spacing:.01em}.e6beec96-64c8-4ac5-b8be-803c7d257c13,.f9d5d7f8-ab6c-4092-aff5-17a00d10b4e9{stroke:#486baf;stroke-width:4px}.e6beec96-64c8-4ac5-b8be-803c7d257c13,.f9d5d7f8-ab6c-4092-aff5-17a00d10b4e9,.fcbd7968-3980-44ee-95a4-9537feb04074{stroke-linecap:round}.e6beec96-64c8-4ac5-b8be-803c7d257c13{stroke-dasharray:6 12}.af2f3a7c-b621-46df-81fd-3a18d953dd52{letter-spacing:-.02em}.ec6fecf2-f93f-4e34-ab09-c9a7d454451b{fill:#e6e6e6}.e207c5fc-fefe-4de9-828d-dfc3a2d715dc{fill:#fff}.aae3d121-d80c-47ce-a777-935129c10f63{stroke:#e905ee;stroke-width:3px}.a7c32a2c-5acd-49bd-878d-3a851a39ae54{font-size:14px}.ea3a94fd-966d-4f96-b2c2-4210deed878d{letter-spacing:-.01em}.a292f485-474f-475c-aec0-f937e4c4c460{letter-spacing:0}.e1eff955-a080-4de3-bc26-42b99c7b48bb{fill:#757575}.ae3a4771-7b41-4ecb-9278-5683c0a26b12,.fcbd7968-3980-44ee-95a4-9537feb04074{stroke:#fff;stroke-width:2px}.fcbd7968-3980-44ee-95a4-9537feb04074{stroke-miterlimit:10}</style></defs><g id="b2f57f6f-11b1-4dab-8cb8-a76f53c0ad6f" data-name="Service-relationships"><rect x=".5" y="21.64" width="450.41" height="225.86" rx="10" stroke-linejoin="round" stroke="#466bb0" stroke-dasharray="9.96 9.96" fill="none"/><text class="be67354c-e839-40bb-b6c9-1b6ee41f2743" transform="translate(.9 13.73)">I<tspan class="b2522a8c-a3aa-44b6-8883-2de0a703a95c" x="3.9" y="0">s</tspan><tspan x="11.39" y="0" letter-spacing="0">t</tspan><tspan class="ad719442-ce20-45ee-8263-a3533359a9ca" x="17.33" y="0">i</tspan><tspan x="20.86" y="0">o M</tspan><tspan class="a1493af5-e6b3-4434-abde-272dce7d150d" x="47.97" y="0">e</tspan><tspan x="57.06" y="0">sh</tspan></text><path class="f9d5d7f8-ab6c-4092-aff5-17a00d10b4e9" d="M29.41 210h3"/><path class="e6beec96-64c8-4ac5-b8be-803c7d257c13" d="M44.41 210h120"/><path class="f9d5d7f8-ab6c-4092-aff5-17a00d10b4e9" d="M170.41 210h3"/><text class="be67354c-e839-40bb-b6c9-1b6ee41f2743" transform="translate(6.24 237)"><tspan class="af2f3a7c-b621-46df-81fd-3a18d953dd52">C</tspan><tspan x="11.54" y="0" letter-spacing="-.01em">on</tspan><tspan class="ad719442-ce20-45ee-8263-a3533359a9ca" x="29.73" y="0">fig</tspan><tspan x="48.62" y="0" letter-spacing="0">u</tspan><tspan x="57.6" y="0" letter-spacing="-.02em">r</tspan><tspan x="63.28" y="0">a</tspan><tspan class="ad719442-ce20-45ee-8263-a3533359a9ca" x="71.78" y="0">bl</tspan><tspan x="84.62" y="0">e t</tspan><tspan class="af2f3a7c-b621-46df-81fd-3a18d953dd52" x="103.2" y="0">r</tspan><tspan x="108.88" y="0" letter-spacing="-.01em">aff</tspan><tspan class="b2522a8c-a3aa-44b6-8883-2de0a703a95c" x="117.22" y="0">i</tspan><tspan x="131.7" y="0">c </tspan><tspan x="144.14" y="0" letter-spacing="-.03em">r</tspan><tspan class="b2522a8c-a3aa-44b6-8883-2de0a703a95c" x="149.66" y="0">o</tspan><tspan class="a1493af5-e6b3-4434-abde-272dce7d150d" x="159.12" y="0">u</tspan><tspan x="168.18" y="0" letter-spacing="-.02em">t</tspan><tspan class="a1493af5-e6b3-4434-abde-272dce7d150d" x="173.68" y="0">e</tspan><tspan x="182.77" y="0">s</tspan></text><rect class="ec6fecf2-f93f-4e34-ab09-c9a7d454451b" x="217.25" y="49.86" width="197.65" height="72" rx="3"/><rect class="e207c5fc-fefe-4de9-828d-dfc3a2d715dc" x="225.9" y="58.86" width="54" height="54" rx="3"/><path class="aae3d121-d80c-47ce-a777-935129c10f63" d="M266.16 93.51v-15.3l-13.26-7.65-13.26 7.65v15.3l13.26 7.65 13.26-7.65z"/><rect class="e207c5fc-fefe-4de9-828d-dfc3a2d715dc" x="288.9" y="58.86" width="117" height="54" rx="3"/><text class="a7c32a2c-5acd-49bd-878d-3a851a39ae54" transform="translate(352.8 90.7)">s<tspan class="ea3a94fd-966d-4f96-b2c2-4210deed878d" x="6.62" y="0">v</tspan><tspan class="a292f485-474f-475c-aec0-f937e4c4c460" x="13.61" y="0">c</tspan><tspan x="21.25" y="0" letter-spacing="-.04em">-</tspan><tspan x="26.87" y="0">Y</tspan></text><circle class="e1eff955-a080-4de3-bc26-42b99c7b48bb" cx="315.9" cy="85.86" r="18"/><path class="ae3a4771-7b41-4ecb-9278-5683c0a26b12" d="M309.51 79.34h12.79v12.79h-12.79z"/><path class="fcbd7968-3980-44ee-95a4-9537feb04074" d="M311.87 79.34v-3.07m4.03 3.07v-3.07m4.03 3.07v-3.07m-8.06 19.18v-3.08m4.03 3.08v-3.08m4.03 3.08v-3.08m-10.54-2.49h-3.08m3.08-4.02h-3.08m3.08-4.03h-3.08m19.18 8.05h-3.08m3.08-4.02h-3.08m3.08-4.03h-3.08"/><rect class="e207c5fc-fefe-4de9-828d-dfc3a2d715dc" x="313.06" y="82.9" width="5.68" height="5.68" rx="2"/><rect class="ec6fecf2-f93f-4e34-ab09-c9a7d454451b" x="217.25" y="140.86" width="197.65" height="72" rx="3"/><rect class="e207c5fc-fefe-4de9-828d-dfc3a2d715dc" x="225.9" y="149.86" width="54" height="54" rx="3"/><path class="aae3d121-d80c-47ce-a777-935129c10f63" d="M266.16 184.51v-15.3l-13.26-7.65-13.26 7.65v15.3l13.26 7.65 13.26-7.65z"/><rect class="e207c5fc-fefe-4de9-828d-dfc3a2d715dc" x="288.9" y="149.86" width="117" height="54" rx="3"/><text class="a7c32a2c-5acd-49bd-878d-3a851a39ae54" transform="translate(352.68 181.7)">s<tspan class="ea3a94fd-966d-4f96-b2c2-4210deed878d" x="6.62" y="0">v</tspan><tspan class="a292f485-474f-475c-aec0-f937e4c4c460" x="13.61" y="0">c-Z</tspan></text><circle class="e1eff955-a080-4de3-bc26-42b99c7b48bb" cx="315.9" cy="176.86" r="18"/><path class="ae3a4771-7b41-4ecb-9278-5683c0a26b12" d="M309.51 170.34h12.79v12.79h-12.79z"/><path class="fcbd7968-3980-44ee-95a4-9537feb04074" d="M311.87 170.34v-3.07m4.03 3.07v-3.07m4.03 3.07v-3.07m-8.06 19.18v-3.08m4.03 3.08v-3.08m4.03 3.08v-3.08m-10.54-2.49h-3.08m3.08-4.02h-3.08m3.08-4.03h-3.08m19.18 8.05h-3.08m3.08-4.02h-3.08m3.08-4.03h-3.08"/><rect class="e207c5fc-fefe-4de9-828d-dfc3a2d715dc" x="313.06" y="173.9" width="5.68" height="5.68" rx="2"/><path class="f9d5d7f8-ab6c-4092-aff5-17a00d10b4e9" d="M162.9 86v3"/><path class="e6beec96-64c8-4ac5-b8be-803c7d257c13" d="M162.9 101v66"/><path class="f9d5d7f8-ab6c-4092-aff5-17a00d10b4e9" d="M162.9 173v3h3"/><path stroke-dasharray="5.18 10.36" stroke-linecap="round" stroke="#486baf" stroke-width="4" stroke-linejoin="round" fill="none" d="M176.26 176h41.46"/><path class="f9d5d7f8-ab6c-4092-aff5-17a00d10b4e9" d="M222.9 176h3"/><rect x="22.11" y="48.28" width="123.25" height="75.44" rx="3" fill="#e5e5e4"/><rect class="e207c5fc-fefe-4de9-828d-dfc3a2d715dc" x="30.92" y="91.71" width="105.64" height="26.41" rx="3"/><text class="a7c32a2c-5acd-49bd-878d-3a851a39ae54" transform="translate(54.98 109.06)"><tspan letter-spacing=".01em">v</tspan><tspan x="7.28" y="0" letter-spacing="0">t</tspan><tspan x="12.47" y="0">l-s</tspan><tspan class="ea3a94fd-966d-4f96-b2c2-4210deed878d" x="28.22" y="0">v</tspan><tspan class="a292f485-474f-475c-aec0-f937e4c4c460" x="35.21" y="0">c-B</tspan></text><path id="ac122465-73d3-435d-a960-5a1af45e8d89" data-name="background" fill="#486baf" d="M69.52 48.28h28.44v28.44H69.52z"/><path id="ff7cf987-c9ec-49e0-8b04-387137c62032" data-name="hull" class="e207c5fc-fefe-4de9-828d-dfc3a2d715dc" d="M75.14 72.17h17.2L81.59 75.4l-6.45-3.23z"/><path id="a0f04449-ec5f-4b7f-96ab-9231e3dc1fce" data-name="mainsail" class="e207c5fc-fefe-4de9-828d-dfc3a2d715dc" d="M75.14 71.1l6.45-1.07V58.2l-6.45 12.9z"/><path id="b955d364-1f8e-44ef-a60e-c757b20f5cd3" data-name="headsail" class="e207c5fc-fefe-4de9-828d-dfc3a2d715dc" d="M82.66 70.03l9.68 1.07-9.68-21.5v20.43z"/><path class="f9d5d7f8-ab6c-4092-aff5-17a00d10b4e9" d="M11 86h3"/><path stroke-dasharray="5.97 11.94" stroke-linecap="round" stroke="#486baf" stroke-width="4" stroke-linejoin="round" fill="none" d="M25.94 86h190.99"/><path class="f9d5d7f8-ab6c-4092-aff5-17a00d10b4e9" d="M222.9 86h3"/></g></svg>

<svg xmlns="http://www.w3.org/2000/svg" viewBox="0 0 451.41 248"><defs><style>.aae3d121-d80c-47ce-a777-935129c10f63,.ae3a4771-7b41-4ecb-9278-5683c0a26b12,.e6beec96-64c8-4ac5-b8be-803c7d257c13,.f9d5d7f8-ab6c-4092-aff5-17a00d10b4e9,.fcbd7968-3980-44ee-95a4-9537feb04074{fill:none}.aae3d121-d80c-47ce-a777-935129c10f63,.ae3a4771-7b41-4ecb-9278-5683c0a26b12,.e6beec96-64c8-4ac5-b8be-803c7d257c13,.f9d5d7f8-ab6c-4092-aff5-17a00d10b4e9{stroke-linejoin:round}.be67354c-e839-40bb-b6c9-1b6ee41f2743{font-size:16px}.a7c32a2c-5acd-49bd-878d-3a851a39ae54,.be67354c-e839-40bb-b6c9-1b6ee41f2743{font-family:GoogleSans-Regular,Google Sans}.b2522a8c-a3aa-44b6-8883-2de0a703a95c{letter-spacing:0}.ad719442-ce20-45ee-8263-a3533359a9ca{letter-spacing:-.01em}.a1493af5-e6b3-4434-abde-272dce7d150d{letter-spacing:.01em}.e6beec96-64c8-4ac5-b8be-803c7d257c13,.f9d5d7f8-ab6c-4092-aff5-17a00d10b4e9{stroke:#486baf;stroke-width:4px}.e6beec96-64c8-4ac5-b8be-803c7d257c13,.f9d5d7f8-ab6c-4092-aff5-17a00d10b4e9,.fcbd7968-3980-44ee-95a4-9537feb04074{stroke-linecap:round}.e6beec96-64c8-4ac5-b8be-803c7d257c13{stroke-dasharray:6 12}.af2f3a7c-b621-46df-81fd-3a18d953dd52{letter-spacing:-.02em}.ec6fecf2-f93f-4e34-ab09-c9a7d454451b{fill:#e6e6e6}.e207c5fc-fefe-4de9-828d-dfc3a2d715dc{fill:#fff}.aae3d121-d80c-47ce-a777-935129c10f63{stroke:#e905ee;stroke-width:3px}.a7c32a2c-5acd-49bd-878d-3a851a39ae54{font-size:14px}.ea3a94fd-966d-4f96-b2c2-4210deed878d{letter-spacing:-.01em}.a292f485-474f-475c-aec0-f937e4c4c460{letter-spacing:0}.e1eff955-a080-4de3-bc26-42b99c7b48bb{fill:#757575}.ae3a4771-7b41-4ecb-9278-5683c0a26b12,.fcbd7968-3980-44ee-95a4-9537feb04074{stroke:#fff;stroke-width:2px}.fcbd7968-3980-44ee-95a4-9537feb04074{stroke-miterlimit:10}</style></defs><g id="b2f57f6f-11b1-4dab-8cb8-a76f53c0ad6f" data-name="Service-relationships"><rect x=".5" y="21.64" width="450.41" height="225.86" rx="10" stroke-linejoin="round" stroke="#466bb0" stroke-dasharray="9.96 9.96" fill="none"/><text class="be67354c-e839-40bb-b6c9-1b6ee41f2743" transform="translate(.9 13.73)">I<tspan class="b2522a8c-a3aa-44b6-8883-2de0a703a95c" x="3.9" y="0">s</tspan><tspan x="11.39" y="0" letter-spacing="0">t</tspan><tspan class="ad719442-ce20-45ee-8263-a3533359a9ca" x="17.33" y="0">i</tspan><tspan x="20.86" y="0">o M</tspan><tspan class="a1493af5-e6b3-4434-abde-272dce7d150d" x="47.97" y="0">e</tspan><tspan x="57.06" y="0">sh</tspan></text><path class="f9d5d7f8-ab6c-4092-aff5-17a00d10b4e9" d="M29.41 210h3"/><path class="e6beec96-64c8-4ac5-b8be-803c7d257c13" d="M44.41 210h120"/><path class="f9d5d7f8-ab6c-4092-aff5-17a00d10b4e9" d="M170.41 210h3"/><text class="be67354c-e839-40bb-b6c9-1b6ee41f2743" transform="translate(6.24 237)"><tspan class="af2f3a7c-b621-46df-81fd-3a18d953dd52">C</tspan><tspan x="11.54" y="0" letter-spacing="-.01em">on</tspan><tspan class="ad719442-ce20-45ee-8263-a3533359a9ca" x="29.73" y="0">fig</tspan><tspan x="48.62" y="0" letter-spacing="0">u</tspan><tspan x="57.6" y="0" letter-spacing="-.02em">r</tspan><tspan x="63.28" y="0">a</tspan><tspan class="ad719442-ce20-45ee-8263-a3533359a9ca" x="71.78" y="0">bl</tspan><tspan x="84.62" y="0">e t</tspan><tspan class="af2f3a7c-b621-46df-81fd-3a18d953dd52" x="103.2" y="0">r</tspan><tspan x="108.88" y="0" letter-spacing="-.01em">aff</tspan><tspan class="b2522a8c-a3aa-44b6-8883-2de0a703a95c" x="117.22" y="0">i</tspan><tspan x="131.7" y="0">c </tspan><tspan x="144.14" y="0" letter-spacing="-.03em">r</tspan><tspan class="b2522a8c-a3aa-44b6-8883-2de0a703a95c" x="149.66" y="0">o</tspan><tspan class="a1493af5-e6b3-4434-abde-272dce7d150d" x="159.12" y="0">u</tspan><tspan x="168.18" y="0" letter-spacing="-.02em">t</tspan><tspan class="a1493af5-e6b3-4434-abde-272dce7d150d" x="173.68" y="0">e</tspan><tspan x="182.77" y="0">s</tspan></text><rect class="ec6fecf2-f93f-4e34-ab09-c9a7d454451b" x="217.25" y="49.86" width="197.65" height="72" rx="3"/><rect class="e207c5fc-fefe-4de9-828d-dfc3a2d715dc" x="225.9" y="58.86" width="54" height="54" rx="3"/><path class="aae3d121-d80c-47ce-a777-935129c10f63" d="M266.16 93.51v-15.3l-13.26-7.65-13.26 7.65v15.3l13.26 7.65 13.26-7.65z"/><rect class="e207c5fc-fefe-4de9-828d-dfc3a2d715dc" x="288.9" y="58.86" width="117" height="54" rx="3"/><text class="a7c32a2c-5acd-49bd-878d-3a851a39ae54" transform="translate(352.8 90.7)">s<tspan class="ea3a94fd-966d-4f96-b2c2-4210deed878d" x="6.62" y="0">v</tspan><tspan class="a292f485-474f-475c-aec0-f937e4c4c460" x="13.61" y="0">c</tspan><tspan x="21.25" y="0" letter-spacing="-.04em">-</tspan><tspan x="26.87" y="0">Y</tspan></text><circle class="e1eff955-a080-4de3-bc26-42b99c7b48bb" cx="315.9" cy="85.86" r="18"/><path class="ae3a4771-7b41-4ecb-9278-5683c0a26b12" d="M309.51 79.34h12.79v12.79h-12.79z"/><path class="fcbd7968-3980-44ee-95a4-9537feb04074" d="M311.87 79.34v-3.07M315.9 79.34v-3.07M319.93 79.34v-3.07M311.87 95.45v-3.08M315.9 95.45v-3.08M319.93 95.45v-3.08M309.39 89.88h-3.08M309.39 85.86h-3.08M309.39 81.83h-3.08M325.49 89.88h-3.08M325.49 85.86h-3.08M325.49 81.83h-3.08"/><rect class="e207c5fc-fefe-4de9-828d-dfc3a2d715dc" x="313.06" y="82.9" width="5.68" height="5.68" rx="2"/><rect class="ec6fecf2-f93f-4e34-ab09-c9a7d454451b" x="217.25" y="140.86" width="197.65" height="72" rx="3"/><rect class="e207c5fc-fefe-4de9-828d-dfc3a2d715dc" x="225.9" y="149.86" width="54" height="54" rx="3"/><path class="aae3d121-d80c-47ce-a777-935129c10f63" d="M266.16 184.51v-15.3l-13.26-7.65-13.26 7.65v15.3l13.26 7.65 13.26-7.65z"/><rect class="e207c5fc-fefe-4de9-828d-dfc3a2d715dc" x="288.9" y="149.86" width="117" height="54" rx="3"/><text class="a7c32a2c-5acd-49bd-878d-3a851a39ae54" transform="translate(352.68 181.7)">s<tspan class="ea3a94fd-966d-4f96-b2c2-4210deed878d" x="6.62" y="0">v</tspan><tspan class="a292f485-474f-475c-aec0-f937e4c4c460" x="13.61" y="0">c-Z</tspan></text><circle class="e1eff955-a080-4de3-bc26-42b99c7b48bb" cx="315.9" cy="176.86" r="18"/><path class="ae3a4771-7b41-4ecb-9278-5683c0a26b12" d="M309.51 170.34h12.79v12.79h-12.79z"/><path class="fcbd7968-3980-44ee-95a4-9537feb04074" d="M311.87 170.34v-3.07M315.9 170.34v-3.07M319.93 170.34v-3.07M311.87 186.45v-3.08M315.9 186.45v-3.08M319.93 186.45v-3.08M309.39 180.88h-3.08M309.39 176.86h-3.08M309.39 172.83h-3.08M325.49 180.88h-3.08M325.49 176.86h-3.08M325.49 172.83h-3.08"/><rect class="e207c5fc-fefe-4de9-828d-dfc3a2d715dc" x="313.06" y="173.9" width="5.68" height="5.68" rx="2"/><path class="f9d5d7f8-ab6c-4092-aff5-17a00d10b4e9" d="M162.9 86v3"/><path class="e6beec96-64c8-4ac5-b8be-803c7d257c13" d="M162.9 101v66"/><path class="f9d5d7f8-ab6c-4092-aff5-17a00d10b4e9" d="M162.9 173v3h3"/><path stroke-dasharray="5.18 10.36" stroke-linecap="round" stroke="#486baf" stroke-width="4" stroke-linejoin="round" fill="none" d="M176.26 176h41.46"/><path class="f9d5d7f8-ab6c-4092-aff5-17a00d10b4e9" d="M222.9 176h3"/><rect x="22.11" y="48.28" width="123.25" height="75.44" rx="3" fill="#e5e5e4"/><rect class="e207c5fc-fefe-4de9-828d-dfc3a2d715dc" x="30.92" y="91.71" width="105.64" height="26.41" rx="3"/><text class="a7c32a2c-5acd-49bd-878d-3a851a39ae54" transform="translate(54.98 109.06)"><tspan letter-spacing=".01em">v</tspan><tspan x="7.28" y="0" letter-spacing="0">t</tspan><tspan x="12.47" y="0">l-s</tspan><tspan class="ea3a94fd-966d-4f96-b2c2-4210deed878d" x="28.22" y="0">v</tspan><tspan class="a292f485-474f-475c-aec0-f937e4c4c460" x="35.21" y="0">c-B</tspan></text><path id="ac122465-73d3-435d-a960-5a1af45e8d89" data-name="background" fill="#486baf" d="M69.52 48.28h28.44v28.44H69.52z"/><path id="ff7cf987-c9ec-49e0-8b04-387137c62032" data-name="hull" class="e207c5fc-fefe-4de9-828d-dfc3a2d715dc" d="M75.14 72.17h17.2L81.59 75.4l-6.45-3.23z"/><path id="a0f04449-ec5f-4b7f-96ab-9231e3dc1fce" data-name="mainsail" class="e207c5fc-fefe-4de9-828d-dfc3a2d715dc" d="M75.14 71.1l6.45-1.07V58.2l-6.45 12.9z"/><path id="b955d364-1f8e-44ef-a60e-c757b20f5cd3" data-name="headsail" class="e207c5fc-fefe-4de9-828d-dfc3a2d715dc" d="M82.66 70.03l9.68 1.07-9.68-21.5v20.43z"/><path class="f9d5d7f8-ab6c-4092-aff5-17a00d10b4e9" d="M11 86h3"/><path stroke-dasharray="5.97 11.94" stroke-linecap="round" stroke="#486baf" stroke-width="4" stroke-linejoin="round" fill="none" d="M25.94 86h190.99"/><path class="f9d5d7f8-ab6c-4092-aff5-17a00d10b4e9" d="M222.9 86h3"/></g></svg>
